!!!COM: des Prez, Josquin
!!!CDT: ~1450-1521/08/27
!!!OTL@@FRA: La plus des plus
!!!AGN: Chanson; Rondeau
!!!SCT: NJE 27.22
!!!SCA: New Josquin Edition 27.22
!!!voices: 3
**kern	**text	**text	**text	**kern	**text	**text	**text	**kern	**text	**text	**text
*staff3	*	*	*	*staff2	*	*	*	*staff1	*	*	*
*Ivox	*	*	*	*Ivox	*	*	*	*Ivox	*	*	*
*I"Contra	*	*	*	*I"Tenor	*	*	*	*I"Superius	*	*	*
*I'C	*	*	*	*I'T	*	*	*	*I'S	*	*	*
*clefF4	*	*	*	*clefGv2	*	*	*	*clefG2	*	*	*
*k[]	*	*	*	*k[]	*	*	*	*k[]	*	*	*
*M2/1	*	*	*	*M2/1	*	*	*	*M2/1	*	*	*
*met(C|)	*	*	*	*met(C|)	*	*	*	*met(C|)	*	*	*
=1-	=1-	=1-	=1-	=1-	=1-	=1-	=1-	=1-	=1-	=1-	=1-
!	!	!	!	!	!	!	!	!LO:TX:Z=10:t=Rondeau	!	!	!
0E	La	Nul	A	1r	.	.	.	0r	.	.	.
.	.	.	.	[1E	La	Nul	A	.	.	.	.
=2	=2	=2	=2	=2	=2	=2	=2	=2	=2	=2	=2
1C	plus	ne	vous	1E]	.	.	.	0r	.	.	.
1D	des	pour-	bien,	1F	plus	ne	vous	.	.	.	.
=3	=3	=3	=3	=3	=3	=3	=3	=3	=3	=3	=3
1E	plus,	-roit,	.	1G	des	pour-	bien	1r	.	.	.
2r	.	.	.	1A	plus	-roit	a	[1e	La	Nul	A
2AA/	la	nul	a	.	.	.	.	.	.	.	.
=4	=4	=4	=4	=4	=4	=4	=4	=4	=4	=4	=4
1C	plus	ne	vous	2G/	seul-	bien	droit	1e]	.	.	.
.	.	.	.	1A	-le	de-	re-	.	.	.	.
1D	des	pour-	bien,	.	.	.	.	1f	plus	ne	vous
.	.	.	.	4G/	.	.	.	.	.	.	.
.	.	.	.	4F/	.	.	.	.	.	.	.
=5	=5	=5	=5	=5	=5	=5	=5	=5	=5	=5	=5
1E	plus	-roit	a	1E	sans	-vi--	-gar-	1g	des	pour-	bien
1F	.	.	.	1D	per,	-ser,	-der,	1a	plus	-roit	a
=6	=6	=6	=6	=6	=6	=6	=6	=6	=6	=6	=6
2E\	seul-	bien	droit	1r	.	.	.	2g/	seul-	bien	droit
1F	-le	de-	re-	.	.	.	.	1a	-le	de-	re-
.	.	.	.	[1A	-le	de-	re-	.	.	.	.
4E\	.	.	.	.	.	.	.	4g/	.	.	.
4D\	.	.	.	.	.	.	.	4f/	.	.	.
=7	=7	=7	=7	=7	=7	=7	=7	=7	=7	=7	=7
2C/	sans	-vi--	-gar-	1A]	.	.	.	1e	sans	-vi--	-gar-
4BB/	.	.	.	.	.	.	.	.	.	.	.
4AA/	.	.	.	.	.	.	.	.	.	.	.
1G	.	.	.	1B	plus	ne	vous	1d	per,	-ser,	-der,
=8	=8	=8	=8	=8	=8	=8	=8	=8	=8	=8	=8
1A	.	.	.	1c	des	pour-	bien	1r	.	.	.
1D	.	.	.	1d	plus	-roit	a	[1a	la	nul	a
=9	=9	=9	=9	=9	=9	=9	=9	=9	=9	=9	=9
1F	.	.	.	2c\	seul-	bien	droit	1a]	.	.	.
.	.	.	.	1d	-le	de-	re-	.	.	.	.
1G	.	.	.	.	.	.	.	1b	plus	ne	vous
.	.	.	.	4c\	.	.	.	.	.	.	.
.	.	.	.	4B\	.	.	.	.	.	.	.
=10	=10	=10	=10	=10	=10	=10	=10	=10	=10	=10	=10
1A	.	.	.	1A	sans	-vi--	-gar-	1cc	des	pour-	bien
1B-	per,	-ser,	-der,	1G	per,	-ser,	-der,	1dd	plus	-roit	a
=11	=11	=11	=11	=11	=11	=11	=11	=11	=11	=11	=11
2A\	sans	-vi--	-gar-	1r	.	.	.	2cc\	seul-	bien	droit
1B-i	.	.	.	.	.	.	.	1dd	-le	de-	re-
.	.	.	.	[1d	seul-	bien	re-	.	.	.	.
4A\	.	.	.	.	.	.	.	4cc\	.	.	.
4G\	.	.	.	.	.	.	.	4b\	.	.	.
=12	=12	=12	=12	=12	=12	=12	=12	=12	=12	=12	=12
1F	per,	-ser,	-der,	2d\]	.	.	.	1a	sans	-vi--	-gar-
.	.	.	.	4c\	.	.	.	.	.	.	.
.	.	.	.	4d\	.	.	.	.	.	.	.
[1c	seul-	bien	re-	[1e	-le	de-	.	[1g	per,	-ser,	-der,
=13	=13	=13	=13	=13	=13	=13	=13	=13	=13	=13	=13
2c\]	.	.	.	2e\]	.	.	.	2g/]	.	.	.
2B\	.	.	.	2d\	.	.	.	4a/	.	.	.
.	.	.	.	.	.	.	.	4b\	.	.	.
2A\	-le	de-	.	2c\	.	.	.	2cc\	.	.	.
2G\	.	.	.	[2d\	sans	-vi--	-gar-	[2b\	seul-	bien	re-
=14	=14	=14	=14	=14	=14	=14	=14	=14	=14	=14	=14
1F	sans	-vi--	-gar-	4d\]	.	.	.	4b\]	.	.	.
.	.	.	.	4c\	.	.	.	4a/	.	.	.
.	.	.	.	4B\	.	.	.	1a	-le	de-	.
.	.	.	.	4A/	.	.	.	.	.	.	.
1E	per,	-ser	-der,	1B	.	.	.	.	.	.	.
.	.	.	.	.	.	.	.	2g#i/	sans	-vi--	-gar-
=15	=15	=15	=15	=15	=15	=15	=15	=15	=15	=15	=15
1r	.	.	.	0A	per,	-ser	-der,	1.a	per,	-ser	-der,
1AA	Mon	Les	On	.	.	.	.	.	.	.	.
.	.	.	.	.	.	.	.	4g/	.	.	.
.	.	.	.	.	.	.	.	4f/	.	.	.
=16	=16	=16	=16	=16	=16	=16	=16	=16	=16	=16	=16
1BB	cueur	biens	ne	1r	.	.	.	4g/	.	.	.
.	.	.	.	.	.	.	.	4f/	.	.	.
.	.	.	.	.	.	.	.	4e/	.	.	.
.	.	.	.	.	.	.	.	4d/	.	.	.
2AA/	se-	de	sau-	1A	Mon	Les	On	1c	.	.	.
2F\	.	.	.	.	.	.	.	.	.	.	.
=17	=17	=17	=17	=17	=17	=17	=17	=17	=17	=17	=17
2E\	vient	vous	-roit	1B	cueur	biens	ne	1r	.	.	.
1D	.	.	.	.	.	.	.	.	.	.	.
.	.	.	.	1B	se-	de	sau-	1d	Mon	Les	On
4C/	.	.	.	.	.	.	.	.	.	.	.
4BB/	.	.	.	.	.	.	.	.	.	.	.
=18	=18	=18	=18	=18	=18	=18	=18	=18	=18	=18	=18
1AA	.	.	.	1.c	vient	vous	-roit	1e	cueur	biens	ne
1A	.	.	.	.	.	.	.	1e	se-	de	sau-
.	.	.	.	4B\	.	.	.	.	.	.	.
.	.	.	.	4A/	.	.	.	.	.	.	.
=19	=19	=19	=19	=19	=19	=19	=19	=19	=19	=19	=19
1r	.	.	.	1B	.	.	.	1d	vient	vous	-roit
1A	ha-	n'as-	riens	1c	.	.	.	1a	ha-	n'as-	riens
=20	=20	=20	=20	=20	=20	=20	=20	=20	=20	=20	=20
1.G	-ban-	-s&eacute;s	de-	1d	ha-	n'as-	riens	1b	-ban-	-s&eacute;s	de-
.	.	.	.	[1e	-ban-	-s&eacute;s	de-	1b	-don-	lou-	-man-
4F\	.	.	.	.	.	.	.	.	.	.	.
4E\	.	.	.	.	.	.	.	.	.	.	.
=21	=21	=21	=21	=21	=21	=21	=21	=21	=21	=21	=21
1A	.	.	.	1e]	.	.	.	1cc	-ner.	-er,	-der
2G\	-don-	lou-	-man-	1e	-don-	lou-	-man-	2b\	.	.	.
[2A\	-ner,	-er,	-der,	.	.	.	.	[2cc\	.	.	.
=22	=22	=22	=22	=22	=22	=22	=22	=22	=22	=22	=22
2A\]	.	.	.	1f	-ner.	-er,	-der	2cc\]	.	.	.
2B\	.	.	.	.	.	.	.	4b\	.	.	.
.	.	.	.	.	.	.	.	4a/	.	.	.
2c\	.	.	.	2e\	.	.	.	2g/	.	.	.
[2F\	.	.	.	[2f\	.	.	.	[2a/	.	.	.
=23	=23	=23	=23	=23	=23	=23	=23	=23	=23	=23	=23
2F\]	.	.	.	2f\]	.	.	.	2a/]	.	.	.
2G\	.	.	.	4e\	.	.	.	4g/	.	.	.
.	.	.	.	4d\	.	.	.	4f/	.	.	.
2A\	.	.	.	[1c	.	.	.	[1e	.	.	.
[2AA/	ha-	n'as-	riens	.	.	.	.	.	.	.	.
=24	=24	=24	=24	=24	=24	=24	=24	=24	=24	=24	=24
2AA/]	.	.	.	2c\]	.	.	.	2e/]	.	.	.
2BB/	.	.	.	4B\	.	.	.	2d/	ha-	n'as-	riens
.	.	.	.	4A/	.	.	.	.	.	.	.
2C/	.	.	.	2G/	.	.	.	2e/	.	.	.
[2D\	-ban-	-s&eacute;s	de-	2F/	ha-	n'as-	riens	[2f/	-ban-	-s&eacute;s	de-
=25	=25	=25	=25	=25	=25	=25	=25	=25	=25	=25	=25
4D\]	.	.	.	1A	-ban-	-s&eacute;s	de-	4f/]	.	.	.
4C/	.	.	.	.	.	.	.	4e/	.	.	.
2D\	.	.	.	.	.	.	.	4d/	.	.	.
.	.	.	.	.	.	.	.	4c/	.	.	.
2E\	.	.	.	2G/	.	.	.	2B/	.	.	.
[2F\	.	.	.	2A/	.	.	.	[2A/	.	.	.
=26	=26	=26	=26	=26	=26	=26	=26	=26	=26	=26	=26
4F\]	.	.	.	1D	.	.	.	2A/]	.	.	.
4E\	.	.	.	.	.	.	.	.	.	.	.
2F\	.	.	.	.	.	.	.	1d	.	.	.
2.G\	.	.	.	1E	-don-	lou-	-man-	.	.	.	.
.	.	.	.	.	.	.	.	2c#i/	-don-	lou-	-man-
4A\	.	.	.	.	.	.	.	.	.	.	.
=27	=27	=27	=27	=27	=27	=27	=27	=27	=27	=27	=27
2B-i\	.	.	.	[0D\	-ner.	-er,	-der	0d	-ner	-er,	-der
2A\	.	.	.	.	.	.	.	.	.	.	.
2B-i\	.	.	.	.	.	.	.	.	.	.	.
[2A\	.	.	.	.	.	.	.	.	.	.	.
=28	=28	=28	=28	=28	=28	=28	=28	=28	=28	=28	=28
4A\]	.	.	.	0D\]	.	.	.	1r	.	.	.
4G\	.	.	.	.	.	.	.	.	.	.	.
4F\	.	.	.	.	.	.	.	.	.	.	.
4E\	.	.	.	.	.	.	.	.	.	.	.
2D\	.	.	.	.	.	.	.	1A	A	Pour	Qu'en
4C/	-don-	lou-	-man-	.	.	.	.	.	.	.	.
4BB/	.	.	.	.	.	.	.	.	.	.	.
=29	=29	=29	=29	=29	=29	=29	=29	=29	=29	=29	=29
[0AA	-ner.	-er,	-der	1r	.	.	.	1.c	vous	ce	vous
.	.	.	.	1A	A	Pour	Qu'en	.	.	.	.
.	.	.	.	.	.	.	.	4B/	.	.	.
.	.	.	.	.	.	.	.	4A/	.	.	.
=30	=30	=30	=30	=30	=30	=30	=30	=30	=30	=30	=30
0AA]	.	.	.	1A	vous	ce	vous	2c/	ser-	mon	ne
.	.	.	.	.	.	.	.	2d/	.	.	.
.	.	.	.	1A	ser-	mon	ne	1e	-vir,	cueur,	sois,
=31	=31	=31	=31	=31	=31	=31	=31	=31	=31	=31	=31
0A	A	Pour	Qu'en	1.c	-vir	cueur,	sois	1r	.	.	.
.	.	.	.	.	.	.	.	1e	a	pour	qu'en
.	.	.	.	4B\	.	.	.	.	.	.	.
.	.	.	.	4A/	.	.	.	.	.	.	.
=32	=32	=32	=32	=32	=32	=32	=32	=32	=32	=32	=32
0E	vous	ce	vous	[0e	.	.	.	1.g	vous	ce	vous
.	.	.	.	.	.	.	.	4f/	.	.	.
.	.	.	.	.	.	.	.	4e/	.	.	.
=33	=33	=33	=33	=33	=33	=33	=33	=33	=33	=33	=33
1.E	ser-	mon	ne	1e]	.	.	.	2g/	ser-	mon	ne
.	.	.	.	.	.	.	.	2a/	.	.	.
.	.	.	.	1e	tant	vous	mais	1b	-vir	cueur,	sois
2F\	.	.	.	.	.	.	.	.	.	.	.
=34	=34	=34	=34	=34	=34	=34	=34	=34	=34	=34	=34
1G	-vir	cueur,	sois	1d	.	.	.	1b	tant	vous	mais
1A	tant	vous	mais	1c	qu'il	de-	tant	[1cc	qu'il	de-	tant
=35	=35	=35	=35	=35	=35	=35	=35	=35	=35	=35	=35
1F	qu'il	de-	tant	1A	vi-	-mou-	y	2cc\]	.	.	.
.	.	.	.	.	.	.	.	4b\	.	.	.
.	.	.	.	.	.	.	.	4a/	.	.	.
2E\	.	.	.	1e	-vra,	-ra,	a,	2b\	.	.	.
2A\	vi-	-mou-	y	.	.	.	.	2cc\	.	.	.
=36	=36	=36	=36	=36	=36	=36	=36	=36	=36	=36	=36
2G\	.	.	.	2r	.	.	.	2b\	vi-	-mou-	y
2E\	.	.	.	2e\	tant	vous	mais	1cc	-vra;	-ra,	a
2.F\	-vra;	-ra,	a	2c\	qu'il	de-	tant	.	.	.	.
.	.	.	.	2d\	vi-	-mou-	y	4b\	.	.	.
4G\	.	.	.	.	.	.	.	4a/	.	.	.
=37	=37	=37	=37	=37	=37	=37	=37	=37	=37	=37	=37
[0EN	.	&	.	1.eN	-vra;	-ra,	a	0gN	.	&	.
.	.	.	.	2d\	N'au-	.	Que	.	.	.	.
=38	=38	=38	=38	=38	=38	=38	=38	=38	=38	=38	=38
0E]	.	.	.	2c\	-tre	&	.	1r	.	.	.
.	.	.	.	4B\	.	.	.	.	.	.	.
.	.	.	.	4A/	.	.	.	.	.	.	.
.	.	.	.	1B	vou-	.	le	1g	N'au-	.	Que
=39	=39	=39	=39	=39	=39	=39	=39	=39	=39	=39	=39
2r	.	.	.	2.A/	-loir	.	bruit	1.a	-tre	.	.
2.AA/	N'au-	.	Que	.	.	.	.	.	.	.	.
.	.	.	.	4B\	.	.	.	.	.	.	.
.	.	.	.	4c\	.	.	.	.	.	.	.
4BB/	.	.	.	4d\	.	.	.	.	.	.	.
2C/	.	.	.	[2e\	.	.	.	2g/	vou-	.	le
=40	=40	=40	=40	=40	=40	=40	=40	=40	=40	=40	=40
2D\	-tre	.	.	4e\]	.	.	.	2f/	-loir	.	bruit
.	.	.	.	4d\	.	.	.	.	.	.	.
2BB/	vou-	.	le	1d	.	.	.	4e/	.	.	.
.	.	.	.	.	.	.	.	4d/	.	.	.
1AA	-loir	.	bruit	.	.	.	.	1e	j'a-	.	est
.	.	.	.	2c#i\	j'a-	.	est	.	.	.	.
=41	=41	=41	=41	=41	=41	=41	=41	=41	=41	=41	=41
2r	.	.	.	1.d	-maiz,	.	tel,	2.d/	-maiz	.	tel,
2.D\	j'a-	.	le	.	.	.	.	.	.	.	.
.	.	.	.	.	.	.	.	4e/	.	.	.
.	.	.	.	.	.	.	.	4f/	.	.	.
4E\	.	.	.	.	.	.	.	4g/	.	.	.
2F\	.	.	.	2c\	j'a-	.	le	[2a/	.	.	.
=42	=42	=42	=42	=42	=42	=42	=42	=42	=42	=42	=42
2G\	-maiz	.	bruit	2B\	-maiz	.	bruit	4a/]	.	.	.
.	.	.	.	.	.	.	.	4g/	.	.	.
2E\	n'au-	.	est	4A/	.	.	.	1g	.	.	.
.	.	.	.	4G/	.	.	.	.	.	.	.
1D	-ra,	.	tel,	1A	n'au-	.	est	.	.	.	.
.	.	.	.	.	.	.	.	2f#i/	n'au-	.	est
=43	=43	=43	=43	=43	=43	=43	=43	=43	=43	=43	=43
2r	.	.	.	2.G/	-ra,	.	tel,	1.g	-ra,	.	tel
2.G\	j'a-	.	le	.	.	.	.	.	.	.	.
.	.	.	.	4A/	.	.	.	.	.	.	.
.	.	.	.	4B\	.	.	.	.	.	.	.
4A\	.	.	.	4c\	.	.	.	.	.	.	.
2B\	.	.	.	[2d\	j'a-	.	le	2f/	j'a-	.	.
=44	=44	=44	=44	=44	=44	=44	=44	=44	=44	=44	=44
2c\	-maiz	.	bruit	4d\]	.	.	.	2e/	-maiz	.	et
.	.	.	.	4c\	.	.	.	.	.	.	.
2A\	.	.	.	1c	-maiz	.	bruit	4d/	.	.	.
.	.	.	.	.	.	.	.	4c/	.	.	.
1G	n'au-	.	est	.	.	.	.	1d	n'au-	.	se-
.	.	.	.	2B\	n'au-	.	est	.	.	.	.
=45	=45	=45	=45	=45	=45	=45	=45	=45	=45	=45	=45
1A	-ra,	.	tel,	2c\	.	.	.	0c	-ra,	.	-ra
.	.	.	.	1A	.	.	.	.	.	.	.
[1AA	Pour	.	Que	.	.	.	.	.	.	.	.
.	.	.	.	4G/	.	.	.	.	.	.	.
.	.	.	.	4F/	.	.	.	.	.	.	.
=46	=46	=46	=46	=46	=46	=46	=46	=46	=46	=46	=46
2AA/]	.	.	.	2E/	.	.	.	1r	.	.	.
2BB/	.	.	.	2D/	.	.	.	.	.	.	.
2C/	.	.	.	1E	.	.	.	1g	Pour	.	Que
4D\	.	.	.	.	.	.	.	.	.	.	.
4E\	.	.	.	.	.	.	.	.	.	.	.
=47	=47	=47	=47	=47	=47	=47	=47	=47	=47	=47	=47
2F\	mal	.	l'on	1D	-ra,	.	-ra	1a	mal	.	l'on
4G\	.	.	.	.	.	.	.	.	.	.	.
4A\	.	.	.	.	.	.	.	.	.	.	.
2AA/	qu'il	.	vous	1A	.	.	.	1cc	qu'il	.	vous
2A\	en	.	doit	.	.	.	.	.	.	.	.
=48	=48	=48	=48	=48	=48	=48	=48	=48	=48	=48	=48
2G\	doy-	.	par-	1r	.	.	.	2b\	en	.	doit
1F	.	.	.	.	.	.	.	1a	.	.	.
.	.	.	.	1D	Pour	.	Que	.	.	.	.
4E\	.	.	.	.	.	.	.	4g/	.	.	.
4D\	.	.	.	.	.	.	.	4f/	.	.	.
=49	=49	=49	=49	=49	=49	=49	=49	=49	=49	=49	=49
2C/	.	.	.	2E/	mal	.	l'on	2g/	.	.	.
2AA/	.	.	.	2.F/	.	.	.	2a/	.	.	.
1BB	.	.	.	.	.	.	.	1d	doy-	.	par-
.	.	.	.	4E/	.	.	.	.	.	.	.
.	.	.	.	2D/	.	.	.	.	.	.	.
=50	=50	=50	=50	=50	=50	=50	=50	=50	=50	=50	=50
2AA/	-e en	.	-tout	2C/	qu'il	.	vous	2e/	-e en	.	-tout
2.A\	.	.	.	2.D/	en	.	doit	2.f/	.	.	.
4G\	.	.	.	4E/	.	.	.	4e/	.	.	.
2A\	.	.	.	2F/	doy-	.	par-	4d/	.	.	.
.	.	.	.	.	.	.	.	4c/	.	.	.
=51	=51	=51	=51	=51	=51	=51	=51	=51	=51	=51	=51
2E\	.	.	.	2G/	-e en	.	-tout	2B/	.	.	.
2C/	.	.	.	1A	.	.	.	2A/	.	.	.
2D\	.	.	.	.	.	.	.	1B	-du-	.	nom-
2E\	-du-	.	nom-	2G#i/	-du-	.	nom-	.	.	.	.
=52	=52	=52	=52	=52	=52	=52	=52	=52	=52	=52	=52
1AA	-rer,	.	-mer,	1A	-rer,	.	-mer,	2.A/	-rer,	.	-mer,
.	.	.	.	.	.	.	.	4B/	.	.	.
2r	.	.	.	1A	pour	.	que	4c/	.	.	.
.	.	.	.	.	.	.	.	4A/	.	.	.
[2AA/	en-	.	par-	.	.	.	.	[2c/	.	.	.
=53	=53	=53	=53	=53	=53	=53	=53	=53	=53	=53	=53
4AA/]	.	.	.	1A	mal	.	l'on	4c/]	.	.	.
4BB/	.	.	-tout	.	.	.	.	4d/	.	.	.
4C/	-du-	.	nom-	.	.	.	.	4e/	.	.	.
4AA/	.	.	.	.	.	.	.	4c/	.	.	.
2.C/	-rer,	.	-mer,	2G/	qu'il	.	vous	2.e/	.	.	.
.	.	.	.	[2c\	en	.	doit	.	.	.	.
4D\	.	.	.	.	.	.	.	4f/	.	.	.
=54	=54	=54	=54	=54	=54	=54	=54	=54	=54	=54	=54
4E\	.	.	.	2c\]	.	.	.	4g/	.	.	.
4C/	.	.	.	.	.	.	.	4e/	.	.	.
2.E\	.	.	.	2B\	doy-	.	par-	2.g/	.	.	.
.	.	.	.	1e	-e en	.	-tout	.	.	.	.
4F\	.	.	.	.	.	.	.	4a/	.	.	.
4G\	.	.	.	.	.	.	.	4b\	.	.	.
4E\	.	.	.	.	.	.	.	4g/	.	.	.
=55	=55	=55	=55	=55	=55	=55	=55	=55	=55	=55	=55
2.G\	.	.	.	2d\	.	.	.	2.b\	.	.	.
.	.	.	.	2e\	.	.	.	.	.	.	.
4A\	.	.	.	.	.	.	.	4cc\	.	.	.
4B\	.	.	.	2d\	.	.	.	4dd\	.	.	.
4G\	.	.	.	.	.	.	.	4b\	.	.	.
[2A\	.	.	.	2c\	.	.	.	[2cc\	.	.	.
=56	=56	=56	=56	=56	=56	=56	=56	=56	=56	=56	=56
2A\]	.	.	.	1A	.	.	.	4cc\]	.	.	.
.	.	.	.	.	.	.	.	4b\	.	.	.
2F\	en-	.	nom-	.	.	.	.	1a	en-	.	tout
1E	-du-	.	.	1B	-du-	.	.	.	.	.	.
.	.	.	.	.	.	.	.	2g#i/	-du-	.	nom-
=57	=57	=57	=57	=57	=57	=57	=57	=57	=57	=57	=57
0AAl	-rer.	.	-mer&colon;	0Al	-rer,	.	-mer,	0al	-rer.	.	-mer&colon;
==	==	==	==	==	==	==	==	==	==	==	==
*-	*-	*-	*-	*-	*-	*-	*-	*-	*-	*-	*-
!!!RDF**kern: l=long note in original notation
!!!RDF**kern: i=editorial accidental
!!!ENC: Jesse Rodin; Victoria Chang 2011/05/30/
!!!END: 2011/05/30/
!!!EED: Jesse Rodin
!!!EEV: 2011/08/09/
!!attribution-level@Jos: 2 (provisionally attributable [parentheses checkmark])
!!!ONB: Translated from MusicXML and edited on 2011/08/09/ by Craig Sapp
!!muse2ps:  C^@{COM}\n@{SCT}^u^rondeau^i2I150v100,100,110c150z18l2650t130
